src/images/badges/made-with-vue.svg

<svg xmlns="http://www.w3.org/2000/svg" width="169.583" height="35.059"><path fill="#c1282d" d="M34.667 0h134.917v35H34.667z"/><path fill="#ef4041" d="M0 .029h112.5v35H0z"/><g fill="#fff"><path d="M125.464 13.588h2.664l1.92 5.82 1.92-5.82h2.556L131.272 22h-2.592zM140.6 19.66a1.344 1.344 0 0 0 1.02.432 1.264 1.264 0 0 0 .984-.426 1.649 1.649 0 0 0 .384-1.146v-4.932h2.5v4.932a3.787 3.787 0 0 1-.474 1.926 3.214 3.214 0 0 1-1.35 1.272 4.409 4.409 0 0 1-2.04.45 4.509 4.509 0 0 1-2.064-.45 3.272 3.272 0 0 1-1.374-1.272 3.71 3.71 0 0 1-.486-1.926v-4.932h2.5v4.932a1.593 1.593 0 0 0 .4 1.14zM149.4 13.588h6.876v1.92H151.9v1.32h3.972v1.92H151.9v1.332h4.5V22h-7z"/></g><g fill="#fff"><path d="M15.789 13.469l2.461 6.539 2.455-6.539h1.916V22h-1.476v-2.812l.146-3.762L18.771 22h-1.06L15.2 15.432l.146 3.756V22h-1.479v-8.531zM31.894 20.014h-3.3L27.9 22h-1.543l3.223-8.531h1.33L34.138 22h-1.547zm-2.889-1.2h2.473l-1.236-3.539zM37.745 22v-8.531h2.52a3.952 3.952 0 0 1 2.007.5 3.436 3.436 0 0 1 1.356 1.43 4.538 4.538 0 0 1 .48 2.121v.428a4.519 4.519 0 0 1-.483 2.133 3.4 3.4 0 0 1-1.377 1.419 4.135 4.135 0 0 1-2.048.5zm1.482-7.336V20.8h.967a2.229 2.229 0 0 0 1.79-.729 3.165 3.165 0 0 0 .636-2.09v-.475a3.251 3.251 0 0 0-.6-2.117 2.142 2.142 0 0 0-1.752-.731zM53.211 18.191h-3.5V20.8h4.1V22h-5.586v-8.531h5.537v1.2h-4.055v2.351h3.5zM69.97 19.891l1.313-6.422h1.471L70.784 22h-1.418l-1.623-6.229L66.085 22h-1.424l-1.969-8.531h1.471l1.324 6.41 1.629-6.41h1.242zM78.041 22h-1.477v-8.531h1.477zM88.5 14.664h-2.66V22h-1.473v-7.336H81.73v-1.2h6.77zM99.03 22h-1.476v-3.785h-3.815V22h-1.482v-8.531h1.482v3.551h3.814v-3.551h1.477z"/></g></svg>

<svg xmlns="http://www.w3.org/2000/svg" width="169.583" height="35.059" viewBox="0 0 169.583 35.059">
  <title>made-with-vue</title>
  <g>
    <rect x="34.667" width="134.917" height="35" style="fill: #c1282d"/>
    <rect y="0.029" width="112.5" height="35" style="fill: #ef4041"/>
    <g>
      <path d="M125.464,13.588h2.664l1.92,5.82,1.92-5.82h2.556L131.272,22H128.68Z" style="fill: #fff"/>
      <path d="M140.6,19.66a1.344,1.344,0,0,0,1.02.432,1.264,1.264,0,0,0,.984-.426,1.649,1.649,0,0,0,.384-1.146V13.588h2.5V18.52a3.787,3.787,0,0,1-.474,1.926,3.214,3.214,0,0,1-1.35,1.272,4.409,4.409,0,0,1-2.04.45,4.509,4.509,0,0,1-2.064-.45,3.272,3.272,0,0,1-1.374-1.272,3.71,3.71,0,0,1-.486-1.926V13.588h2.5V18.52A1.593,1.593,0,0,0,140.6,19.66Z" style="fill: #fff"/>
      <path d="M149.4,13.588h6.876v1.92H151.9v1.32h3.972v1.92H151.9V20.08h4.5V22h-7Z" style="fill: #fff"/>
    </g>
    <g>
      <path d="M15.789,13.469l2.461,6.539,2.455-6.539h1.916V22H21.145V19.188l.146-3.762L18.771,22H17.711L15.2,15.432l.146,3.756V22H13.867V13.469Z" style="fill: #fff"/>
      <path d="M31.894,20.014h-3.3L27.9,22H26.357l3.223-8.531h1.33L34.138,22H32.591Zm-2.889-1.2h2.473l-1.236-3.539Z" style="fill: #fff"/>
      <path d="M37.745,22V13.469h2.52a3.952,3.952,0,0,1,2.007.5,3.436,3.436,0,0,1,1.356,1.43,4.538,4.538,0,0,1,.48,2.121v.428a4.519,4.519,0,0,1-.483,2.133A3.4,3.4,0,0,1,42.248,21.5,4.135,4.135,0,0,1,40.2,22Zm1.482-7.336V20.8h.967a2.229,2.229,0,0,0,1.79-.729,3.165,3.165,0,0,0,.636-2.09v-.475a3.251,3.251,0,0,0-.6-2.117,2.142,2.142,0,0,0-1.752-.731Z" style="fill: #fff"/>
      <path d="M53.211,18.191h-3.5V20.8h4.1V22H48.225V13.469h5.537v1.2H49.707V17.02h3.5Z" style="fill: #fff"/>
      <path d="M69.97,19.891l1.313-6.422h1.471L70.784,22H69.366l-1.623-6.229L66.085,22H64.661l-1.969-8.531h1.471l1.324,6.41,1.629-6.41h1.242Z" style="fill: #fff"/>
      <path d="M78.041,22H76.564V13.469h1.477Z" style="fill: #fff"/>
      <path d="M88.5,14.664h-2.66V22H84.367V14.664H81.73v-1.2H88.5Z" style="fill: #fff"/>
      <path d="M99.03,22H97.554V18.215H93.739V22H92.257V13.469h1.482V17.02h3.814V13.469H99.03Z" style="fill: #fff"/>
    </g>
  </g>
</svg>
